;Generated by Cura LulzBot Edition GCodeWriter Version: 3.6.37
;FLAVOR:Marlin
;TIME:6599
;Filament used: 3.25325m
;Layer height: 0.25
;Generated with Cura_SteamEngine 3.6.37-macos
M82 ;absolute extrusion mode
;This G-Code has been generated specifically for the LulzBot Mini 2 with SE 0.5mm Tool Head
;
;The following lines can be uncommented for printer specific fine tuning
;More information can be found at https://marlinfw.org/meta/gcode/
;
;M92 E420                 ;Set Axis Steps-per-unit
;M301 P21.0 I1.78 D61.93  ;Set Hotend PID
;M906 E960                ;TMC Motor Current
;
M73 P0                  ; clear GLCD progress bar
M75 					; Start GLCD Print Timer
G26 					; clear potential 'probe fail' condition
M107 					; disable fans
M420 S0                 ; disable leveling matrix
G90 					; absolute positioning
M82 					; set extruder to absolute mode
G92 E0 					; set extruder position to 0
M140 S60.0 ; start bed heating up
G28 					; home all axes
G0 X0 Y187 Z156 F200 			; move away from endstops
M117 Mini 2 Wiping...			; progress indicator message on LCD
M109 R140 	; soften filament before retraction
G1 E-15 F75 				; retract filament
M109 R140                  ; wait for extruder to reach wiping temp
;M206 X0 Y0 Z0              ; uncomment to adjust wipe position (+X ~ nozzle moves left)(+Y ~ nozzle moves forward)(+Z ~ nozzle moves down)
G12                         ; wiping sequence
M206 X0 Y0 Z0               ; reseting stock nozzle position ### CAUTION: changing this line can affect print quality ###
G28 X0 Y0				; home X and Y
M109 R140	; wait for extruder to reach probe temp
M204 S300				; set probing acceleration
G29					; start auto-leveling sequence
M420 S1                     ; enable leveling matrix
M425 Z			     		; use measured Z backlash for compensation
M425 Z F0		     		; turn off measured Z backlash compensation. (if activated in the quality settings, this command will automatically be ignored)
M204 S2000				; restore standard acceleration
G1 X5 Y15 Z10 F5000			; move up off last probe point
G4 S1					; pause
M400					; wait for moves to finish
M117 Heating...				; progress indicator message on LCD
M109 R210 ; wait for extruder to reach initial printing temp
M190 R60.0 ; wait for bed to reach printing temp
G1 Z2 E0 F75				; prime tiny bit of filament into the nozzle
M117 Mini 2 Printing...		; progress indicator message on LCD

M221 S100 T0
G92 E0
G1 F600 E-1.75
;LAYER_COUNT:32
;LAYER:0
M107
G0 F2625 X24.562 Y23.357 Z0.425
;TYPE:SKIRT
G1 F600 E0
G1 F900 X24.952 Y23.051 E0.01651
G1 X25.332 Y22.797 E0.03174
G1 X25.776 Y22.548 E0.04869
G1 X26.254 Y22.371 E0.06567
G1 X26.754 Y22.272 E0.08265
G1 X27.138 Y22.249 E0.09547
G1 X134.266 Y22.234 E3.66394
G1 X134.518 Y22.244 E3.67234
G1 X135.316 Y22.306 E3.699
G1 X135.819 Y22.385 E3.71596
G1 X136.304 Y22.542 E3.73294
G1 X136.758 Y22.772 E3.7499
G1 X137.322 Y23.209 E3.77366
G1 X137.734 Y23.607 E3.79274
G1 X138.072 Y23.988 E3.80971
G1 X138.345 Y24.418 E3.82668
G1 X138.549 Y24.885 E3.84365
G1 X138.676 Y25.378 E3.86061
G1 X138.72 Y25.747 E3.87299
G1 X138.783 Y26.782 E3.90753
G1 X138.789 Y26.98 E3.91413
G1 X138.762 Y136.08 E7.54829
G1 X138.722 Y136.588 E7.56526
G1 X138.603 Y137.083 E7.58222
G1 X138.408 Y137.554 E7.5992
G1 X138.142 Y137.988 E7.61616
G1 X137.753 Y138.433 E7.63584
G1 X137.213 Y138.947 E7.66068
G1 X136.817 Y139.268 E7.67766
G1 X136.376 Y139.524 E7.69464
G1 X135.901 Y139.707 E7.7116
G1 X135.403 Y139.814 E7.72857
G1 X134.971 Y139.843 E7.74299
G1 X27.071 Y139.82 E11.33718
G1 X26.563 Y139.78 E11.35415
G1 X26.068 Y139.661 E11.37111
G1 X25.597 Y139.466 E11.38809
G1 X25.064 Y139.126 E11.40915
G1 X24.719 Y138.855 E11.42376
G1 X24.345 Y138.51 E11.44071
G1 X23.905 Y137.911 E11.46547
G1 X23.757 Y137.652 E11.47541
G1 X23.54 Y137.192 E11.49235
G1 X23.397 Y136.702 E11.50935
G1 X23.329 Y136.04 E11.53152
G1 X23.324 Y26.078 E15.19439
G1 X23.364 Y25.57 E15.21137
G1 X23.483 Y25.075 E15.22832
G1 X23.746 Y24.477 E15.25009
G1 X23.93 Y24.152 E15.26253
G1 X24.215 Y23.729 E15.27952
G1 X24.562 Y23.357 E15.29646
G1 F600 E13.54646
;MESH:
G0 F2625 X26.449 Y25.14
G0 X27.347 Y26.253
G0 X85.418 Y42.259
G0 X88.23 Y43.113
G0 X90.832 Y44.501
G0 X93.106 Y46.368
G0 X94.974 Y48.644
G0 X96.36 Y51.239
G0 X97.215 Y54.06
G0 X97.504 Y56.986
G0 X97.216 Y59.909
G0 X96.358 Y62.737
G0 X94.974 Y65.328
G0 X93.106 Y67.604
G0 X90.832 Y69.471
G0 X88.23 Y70.859
G0 X85.417 Y71.713
G0 X83.22 Y71.94
G0 X83.152 Y71.922
;TYPE:WALL-INNER
G1 F600 E15.29646
G1 F900 X82.491 Y71.987 E15.31859
G1 X80.089 Y72.223 E15.39898
G1 X79.864 Y72.246 E15.40652
G1 X79.272 Y72.362 E15.42661
G1 X77.039 Y73.042 E15.50437
G1 X76.48 Y73.271 E15.52449
G1 X74.423 Y74.372 E15.60221
G1 X73.921 Y74.705 E15.62227
G1 X72.116 Y76.188 E15.70009
G1 X71.69 Y76.614 E15.72016
G1 X70.209 Y78.417 E15.79788
G1 X69.873 Y78.919 E15.818
G1 X68.774 Y80.978 E15.89574
G1 X68.542 Y81.535 E15.91584
G1 X67.866 Y83.769 E15.99359
G1 X67.746 Y84.36 E16.01368
G1 X67.735 Y84.463 E16.01713
G1 X67.518 Y86.684 E16.09146
G1 X67.517 Y87.286 E16.11152
G1 X67.736 Y89.507 E16.18586
G1 X67.747 Y89.611 E16.18934
G1 X67.864 Y90.202 E16.20941
G1 X68.543 Y92.435 E16.28715
G1 X68.772 Y92.993 E16.30725
G1 X69.873 Y95.05 E16.38496
G1 X70.208 Y95.553 E16.40509
G1 X71.69 Y97.357 E16.48286
G1 X72.114 Y97.784 E16.50291
G1 X73.92 Y99.265 E16.58071
G1 X74.421 Y99.6 E16.60078
G1 X76.48 Y100.699 E16.67853
G1 X77.037 Y100.931 E16.69863
G1 X79.27 Y101.608 E16.77635
G1 X79.711 Y101.697 E16.79134
G1 X79.861 Y101.727 E16.79643
G1 X79.889 Y101.729 E16.79737
G1 X82.085 Y101.945 E16.87087
G1 X79.903 Y102.16 E16.90241
G1 X79.848 Y102.166 E16.90407
G1 X79.698 Y102.195 E16.90885
G1 X79.258 Y102.281 E16.92378
G1 X77.006 Y102.966 E17.00219
G1 X76.45 Y103.197 E17.02225
G1 X74.377 Y104.304 E17.10053
G1 X73.876 Y104.638 E17.12059
G1 X72.058 Y106.131 E17.19895
G1 X71.632 Y106.556 E17.21899
G1 X70.141 Y108.373 E17.29729
G1 X69.806 Y108.874 E17.31736
G1 X68.699 Y110.947 E17.39564
G1 X68.467 Y111.502 E17.41568
G1 X67.785 Y113.754 E17.49406
G1 X67.736 Y113.996 E17.50229
G1 X67.666 Y114.343 E17.51408
G1 X67.663 Y114.38 E17.51531
G1 X67.487 Y116.166 E17.57509
G1 X67.311 Y114.377 E17.59638
G1 X67.307 Y114.346 E17.59709
G1 X67.24 Y113.999 E17.60723
G1 X67.192 Y113.757 E17.61545
G1 X66.507 Y111.504 E17.69389
G1 X66.278 Y110.949 E17.71389
G1 X65.169 Y108.876 E17.7922
G1 X64.835 Y108.374 E17.81228
G1 X63.342 Y106.557 E17.89062
G1 X62.919 Y106.131 E17.91062
G1 X61.101 Y104.639 E17.98896
G1 X60.601 Y104.304 E18.00901
G1 X58.526 Y103.198 E18.08733
G1 X57.972 Y102.965 E18.10735
G1 X55.719 Y102.282 E18.18577
G1 X55.28 Y102.194 E18.20069
G1 X55.129 Y102.165 E18.20581
G1 X55.071 Y102.16 E18.20775
G1 X52.89 Y101.946 E18.28075
G1 X55.087 Y101.729 E18.31278
G1 X55.112 Y101.726 E18.31344
G1 X55.263 Y101.697 E18.31825
G1 X55.703 Y101.61 E18.33319
G1 X57.936 Y100.93 E18.41095
G1 X58.495 Y100.701 E18.43107
G1 X60.551 Y99.6 E18.50876
G1 X61.053 Y99.267 E18.52882
G1 X62.859 Y97.784 E18.60667
G1 X63.285 Y97.358 E18.62673
G1 X64.766 Y95.554 E18.70448
G1 X65.101 Y95.052 E18.72459
G1 X66.201 Y92.994 E18.80232
G1 X66.433 Y92.437 E18.82242
G1 X67.109 Y90.203 E18.90016
G1 X67.229 Y89.612 E18.92025
G1 X67.24 Y89.509 E18.9237
G1 X67.456 Y87.288 E18.96555
G1 X67.457 Y86.686 E18.96808
G1 X67.239 Y84.465 E19.00993
G1 X67.228 Y84.362 E19.01338
G1 X67.111 Y83.77 E19.03348
G1 X66.432 Y81.537 E19.11123
G1 X66.203 Y80.979 E19.13132
G1 X65.101 Y78.922 E19.20905
G1 X64.768 Y78.419 E19.22915
G1 X63.285 Y76.615 E19.30694
G1 X62.861 Y76.188 E19.32698
G1 X61.055 Y74.707 E19.40478
G1 X60.553 Y74.372 E19.42488
G1 X58.495 Y73.273 E19.5026
G1 X57.938 Y73.041 E19.5227
G1 X56.069 Y72.473 E19.58777
G1 X55.704 Y72.362 E19.60047
G1 X55.477 Y72.318 E19.60818
G1 X55.111 Y72.245 E19.62061
G1 X54.773 Y72.212 E19.63192
G1 X55.104 Y72.18 E19.63256
G1 X55.511 Y72.139 E19.63649
G1 X55.625 Y72.105 E19.63731
G1 X55.99 Y71.995 E19.64718
G1 X58.407 Y71.261 E19.73132
G1 X61.075 Y69.835 E19.83209
G1 X63.437 Y67.896 E19.93389
G1 X65.301 Y65.626 E20.03173
G1 X66.769 Y62.878 E20.13551
G1 X67.487 Y60.509 E20.21797
G1 X67.638 Y60.01 E20.23533
G1 X67.649 Y59.893 E20.23925
G1 X67.724 Y59.142 E20.26439
G1 X67.799 Y59.907 E20.26851
G1 X67.813 Y59.955
G1 X67.964 Y60.454 E20.28061
G1 X68.651 Y62.716 E20.35935
G1 X70.034 Y65.307 E20.45718
G1 X71.897 Y67.576 E20.55498
G1 X74.167 Y69.439 E20.6528
G1 X76.757 Y70.822 E20.7506
G1 X79.566 Y71.675 E20.84839
G1 X80.086 Y71.727 E20.8658
G1 X82.487 Y71.962 E20.90815
G1 X83.148 Y71.897 E20.90932
G1 X84.888 Y71.727 E20.96756
G1 X85.409 Y71.675 E20.985
G1 X88.218 Y70.822 E21.08279
G1 X90.808 Y69.439 E21.18059
G1 X93.078 Y67.576 E21.27841
G1 X94.94 Y65.307 E21.37618
G1 X96.322 Y62.721 E21.47385
G1 X97.178 Y59.901 E21.57202
G1 X97.24 Y59.277 E21.59291
G1 X97.464 Y56.986 E21.66958
G1 X97.239 Y54.697 E21.7462
G1 X97.177 Y54.068 E21.76725
G1 X96.324 Y51.255 E21.86517
G1 X94.94 Y48.665 E21.96299
G1 X93.078 Y46.396 E22.06076
G1 X90.808 Y44.533 E22.15858
G1 X88.218 Y43.15 E22.25638
G1 X85.409 Y42.297 E22.35417
G1 X82.487 Y42.009 E22.45197
G1 X79.566 Y42.297 E22.54975
G1 X76.757 Y43.15 E22.64753
G1 X74.167 Y44.533 E22.74534
G1 X71.897 Y46.396 E22.84316
G1 X70.034 Y48.665 E22.94095
G1 X68.651 Y51.255 E23.03875
G1 X67.962 Y53.528 E23.11787
G1 X67.807 Y54.04 E23.13569
G1 X67.799 Y54.065 E23.13656
G1 X67.723 Y54.84 E23.1625
G1 X67.649 Y54.081 E23.16617
G1 X67.639 Y53.989 E23.16793
G1 X67.484 Y53.477 E23.1802
G1 X66.76 Y51.094 E23.26316
G1 X65.335 Y48.425 E23.36394
G1 X63.415 Y46.085 E23.46477
G1 X61.076 Y44.165 E23.56557
G1 X58.407 Y42.739 E23.66637
G1 X55.51 Y41.862 E23.76719
G1 X52.5 Y41.565 E23.86794
G1 X49.49 Y41.862 E23.9687
G1 X46.593 Y42.739 E24.06952
G1 X43.925 Y44.165 E24.17029
G1 X41.585 Y46.085 E24.27112
G1 X39.665 Y48.424 E24.37192
G1 X38.239 Y51.093 E24.47272
G1 X37.361 Y53.989 E24.57352
G1 X37.065 Y57 E24.6743
G1 X37.362 Y60.01 E24.77505
G1 X38.239 Y62.903 E24.87575
G1 X39.669 Y65.581 E24.97688
G1 X41.583 Y67.912 E25.07734
G1 X43.924 Y69.835 E25.17826
G1 X46.594 Y71.26 E25.27907
G1 X49.002 Y71.99 E25.36289
G1 X49.353 Y72.096 E25.3751
G1 X49.49 Y72.138 E25.37987
G1 X49.873 Y72.176 E25.3927
G1 X50.223 Y72.211 E25.40441
G1 X49.866 Y72.246 E25.40539
G1 X49.525 Y72.312 E25.40787
G1 X49.273 Y72.362 E25.41288
G1 X48.922 Y72.468 E25.42248
G1 X47.038 Y73.042 E25.48808
G1 X46.479 Y73.271 E25.50821
G1 X44.423 Y74.372 E25.58589
G1 X43.921 Y74.705 E25.60596
G1 X42.116 Y76.188 E25.68378
G1 X41.69 Y76.614 E25.70384
G1 X40.209 Y78.417 E25.78157
G1 X39.873 Y78.919 E25.80169
G1 X38.774 Y80.978 E25.87943
G1 X38.542 Y81.535 E25.89953
G1 X37.866 Y83.769 E25.97728
G1 X37.746 Y84.36 E25.99737
G1 X37.518 Y86.684 E26.07515
G1 X37.517 Y87.286 E26.0952
G1 X37.747 Y89.611 E26.17303
G1 X37.864 Y90.202 E26.1931
G1 X38.543 Y92.435 E26.27084
G1 X38.772 Y92.993 E26.29093
G1 X39.873 Y95.05 E26.36865
G1 X40.208 Y95.553 E26.38878
G1 X41.69 Y97.357 E26.46655
G1 X42.114 Y97.784 E26.4866
G1 X43.92 Y99.265 E26.5644
G1 X44.421 Y99.6 E26.58447
G1 X46.48 Y100.699 E26.66222
G1 X47.037 Y100.931 E26.68231
G1 X49.27 Y101.608 E26.76004
G1 X49.711 Y101.697 E26.77503
G1 X49.861 Y101.727 E26.78012
G1 X49.889 Y101.729 E26.78106
G1 X52.085 Y101.945 E26.85456
G1 X49.903 Y102.16 E26.88609
G1 X49.848 Y102.166 E26.88776
G1 X49.698 Y102.195 E26.89254
G1 X49.258 Y102.281 E26.90747
G1 X47.006 Y102.966 E26.98588
G1 X46.45 Y103.197 E27.00594
G1 X44.377 Y104.304 E27.08422
G1 X43.876 Y104.638 E27.10428
G1 X42.058 Y106.131 E27.18264
G1 X41.632 Y106.556 E27.20268
G1 X40.141 Y108.373 E27.28098
G1 X39.806 Y108.874 E27.30105
G1 X38.699 Y110.947 E27.37933
G1 X38.467 Y111.502 E27.39937
G1 X37.785 Y113.754 E27.47775
G1 X37.666 Y114.343 E27.49777
G1 X37.437 Y116.684 E27.57612
G1 X37.436 Y117.286 E27.59617
G1 X37.667 Y119.627 E27.67453
G1 X37.783 Y120.217 E27.69456
G1 X38.468 Y122.467 E27.7729
G1 X38.697 Y123.023 E27.79293
G1 X39.806 Y125.096 E27.87125
G1 X40.14 Y125.597 E27.8913
G1 X41.632 Y127.415 E27.96964
G1 X42.057 Y127.841 E27.98969
G1 X43.874 Y129.333 E28.068
G1 X44.374 Y129.668 E28.08805
G1 X46.448 Y130.774 E28.16635
G1 X47.003 Y131.007 E28.1864
G1 X49.255 Y131.688 E28.26477
G1 X49.845 Y131.807 E28.28481
G1 X52.186 Y132.036 E28.36317
G1 X52.787 Y132.037 E28.38319
G1 X55.128 Y131.806 E28.46154
G1 X55.717 Y131.69 E28.48154
G1 X57.969 Y131.006 E28.55994
G1 X58.524 Y130.775 E28.57996
G1 X60.598 Y129.668 E28.65828
G1 X61.099 Y129.334 E28.67833
G1 X62.917 Y127.841 E28.75669
G1 X63.342 Y127.416 E28.77672
G1 X64.834 Y125.599 E28.85503
G1 X65.169 Y125.099 E28.87508
G1 X66.276 Y123.024 E28.95342
G1 X66.508 Y122.468 E28.97349
G1 X67.191 Y120.218 E29.05181
G1 X67.239 Y119.978 E29.05996
G1 X67.308 Y119.629 E29.07182
G1 X67.311 Y119.593 E29.07302
G1 X67.487 Y117.804 E29.1329
G1 X67.663 Y119.595 E29.15419
G1 X67.667 Y119.627 E29.15494
G1 X67.735 Y119.976 E29.16514
G1 X67.783 Y120.217 E29.17333
G1 X68.468 Y122.467 E29.25167
G1 X68.697 Y123.023 E29.2717
G1 X69.806 Y125.096 E29.35001
G1 X70.14 Y125.597 E29.37007
G1 X71.632 Y127.415 E29.44841
G1 X72.057 Y127.841 E29.46846
G1 X73.874 Y129.333 E29.54677
G1 X74.374 Y129.668 E29.56682
G1 X76.448 Y130.774 E29.64511
G1 X77.003 Y131.007 E29.66516
G1 X79.255 Y131.688 E29.74353
G1 X79.845 Y131.807 E29.76358
G1 X82.186 Y132.036 E29.84193
G1 X82.787 Y132.037 E29.86195
G1 X85.128 Y131.806 E29.94031
G1 X85.717 Y131.69 E29.96031
G1 X87.969 Y131.006 E30.03871
G1 X88.524 Y130.775 E30.05873
G1 X90.598 Y129.668 E30.13704
G1 X91.099 Y129.334 E30.1571
G1 X92.917 Y127.841 E30.23546
G1 X93.342 Y127.416 E30.25548
G1 X94.834 Y125.599 E30.3338
G1 X95.169 Y125.099 E30.35385
G1 X96.276 Y123.025 E30.43216
G1 X96.508 Y122.47 E30.45219
G1 X97.191 Y120.218 E30.53058
G1 X97.239 Y119.978 E30.53874
G1 X97.308 Y119.629 E30.55059
G1 X97.311 Y119.592 E30.55182
G1 X97.488 Y117.799 E30.61184
G1 X97.663 Y119.595 E30.6332
G1 X97.667 Y119.626 E30.63391
G1 X97.735 Y119.975 E30.64412
G1 X97.783 Y120.216 E30.6523
G1 X98.468 Y122.468 E30.73071
G1 X98.697 Y123.023 E30.75071
G1 X99.806 Y125.096 E30.82902
G1 X100.14 Y125.597 E30.84908
G1 X101.632 Y127.415 E30.92742
G1 X102.057 Y127.841 E30.94746
G1 X103.874 Y129.333 E31.02578
G1 X104.374 Y129.668 E31.04583
G1 X106.448 Y130.774 E31.12412
G1 X107.003 Y131.007 E31.14417
G1 X109.255 Y131.688 E31.22254
G1 X109.845 Y131.807 E31.24259
G1 X112.186 Y132.036 E31.32094
G1 X112.787 Y132.037 E31.34096
G1 X115.128 Y131.806 E31.41932
G1 X115.717 Y131.69 E31.43932
G1 X117.969 Y131.006 E31.51772
G1 X118.524 Y130.775 E31.53774
G1 X120.598 Y129.668 E31.61605
G1 X121.099 Y129.334 E31.63611
G1 X122.917 Y127.841 E31.71447
G1 X123.342 Y127.416 E31.73449
G1 X124.834 Y125.599 E31.81281
G1 X125.169 Y125.099 E31.83285
G1 X126.276 Y123.024 E31.91119
G1 X126.508 Y122.468 E31.93126
G1 X127.191 Y120.218 E32.00959
G1 X127.308 Y119.629 E32.02959
G1 X127.538 Y117.289 E32.10791
G1 X127.539 Y116.686 E32.128
G1 X127.307 Y114.346 E32.20633
G1 X127.192 Y113.757 E32.22632
G1 X126.507 Y111.504 E32.30476
G1 X126.278 Y110.949 E32.32476
G1 X125.169 Y108.876 E32.40307
G1 X124.835 Y108.374 E32.42315
G1 X123.342 Y106.557 E32.50149
G1 X122.919 Y106.131 E32.52149
G1 X121.101 Y104.639 E32.59983
G1 X120.601 Y104.304 E32.61988
G1 X118.526 Y103.198 E32.6982
G1 X117.972 Y102.965 E32.71822
G1 X115.719 Y102.282 E32.79664
G1 X115.28 Y102.194 E32.81156
G1 X115.129 Y102.165 E32.81668
G1 X115.071 Y102.16 E32.81862
G1 X112.89 Y101.946 E32.89162
G1 X115.087 Y101.729 E32.92365
G1 X115.112 Y101.726 E32.92431
G1 X115.263 Y101.697 E32.92912
G1 X115.703 Y101.61 E32.94406
G1 X117.936 Y100.93 E33.02182
G1 X118.495 Y100.701 E33.04194
G1 X120.551 Y99.6 E33.11963
G1 X121.053 Y99.267 E33.13969
G1 X122.859 Y97.784 E33.21754
G1 X123.285 Y97.358 E33.2376
G1 X124.766 Y95.554 E33.31535
G1 X125.101 Y95.052 E33.33546
G1 X126.201 Y92.994 E33.41319
G1 X126.433 Y92.437 E33.43329
G1 X127.109 Y90.203 E33.51103
G1 X127.229 Y89.612 E33.53112
G1 X127.456 Y87.288 E33.6089
G1 X127.457 Y86.686 E33.62896
G1 X127.228 Y84.362 E33.70674
G1 X127.111 Y83.77 E33.72685
G1 X126.432 Y81.537 E33.80459
G1 X126.203 Y80.979 E33.82468
G1 X125.101 Y78.922 E33.90241
G1 X124.768 Y78.419 E33.92251
G1 X123.285 Y76.615 E34.0003
G1 X122.861 Y76.188 E34.02034
