;Generated by Cura LulzBot Edition GCodeWriter Version: 3.6.37
;FLAVOR:Marlin
;TIME:2051
;Filament used: 0.960248m
;Layer height: 0.25
;Generated with Cura_SteamEngine 3.6.37-macos
M82 ;absolute extrusion mode
;This G-Code has been generated specifically for the LulzBot Mini 2 with SE 0.5mm Tool Head
;
;The following lines can be uncommented for printer specific fine tuning
;More information can be found at https://marlinfw.org/meta/gcode/
;
;M92 E420                 ;Set Axis Steps-per-unit
;M301 P21.0 I1.78 D61.93  ;Set Hotend PID
;M906 E960                ;TMC Motor Current
;
M73 P0                  ; clear GLCD progress bar
M75 					; Start GLCD Print Timer
G26 					; clear potential 'probe fail' condition
M107 					; disable fans
M420 S0                 ; disable leveling matrix
G90 					; absolute positioning
M82 					; set extruder to absolute mode
G92 E0 					; set extruder position to 0
M140 S60.0 ; start bed heating up
G28 					; home all axes
G0 X0 Y187 Z156 F200 			; move away from endstops
M117 Mini 2 Wiping...			; progress indicator message on LCD
M109 R140 	; soften filament before retraction
G1 E-15 F75 				; retract filament
M109 R140                  ; wait for extruder to reach wiping temp
;M206 X0 Y0 Z0              ; uncomment to adjust wipe position (+X ~ nozzle moves left)(+Y ~ nozzle moves forward)(+Z ~ nozzle moves down)
G12                         ; wiping sequence
M206 X0 Y0 Z0               ; reseting stock nozzle position ### CAUTION: changing this line can affect print quality ###
G28 X0 Y0				; home X and Y
M109 R140	; wait for extruder to reach probe temp
M204 S300				; set probing acceleration
G29					; start auto-leveling sequence
M420 S1                     ; enable leveling matrix
M425 Z			     		; use measured Z backlash for compensation
M425 Z F0		     		; turn off measured Z backlash compensation. (if activated in the quality settings, this command will automatically be ignored)
M204 S2000				; restore standard acceleration
G1 X5 Y15 Z10 F5000			; move up off last probe point
G4 S1					; pause
M400					; wait for moves to finish
M117 Heating...				; progress indicator message on LCD
M109 R210 ; wait for extruder to reach initial printing temp
M190 R60.0 ; wait for bed to reach printing temp
G1 Z2 E0 F75				; prime tiny bit of filament into the nozzle
M117 Mini 2 Printing...		; progress indicator message on LCD

M221 S100 T0
G92 E0
G1 F600 E-1.75
;LAYER_COUNT:32
;LAYER:0
M107
G0 F2625 X53.947 Y54.077 Z0.425
;TYPE:SKIRT
G1 F600 E0
G1 F900 X54.193 Y53.833 E0.01154
G1 X54.609 Y53.476 E0.0298
G1 X55.072 Y53.185 E0.04802
G1 X55.573 Y52.963 E0.06627
G1 X56.1 Y52.817 E0.08449
G1 X56.835 Y52.745 E0.10909
G1 X105.285 Y52.757 E1.72297
G1 X105.831 Y52.797 E1.74121
G1 X106.365 Y52.916 E1.75943
G1 X106.876 Y53.112 E1.77767
G1 X107.354 Y53.38 E1.79592
G1 X107.936 Y53.855 E1.82094
G1 X108.179 Y54.098 E1.83239
G1 X108.536 Y54.513 E1.85063
G1 X108.83 Y54.975 E1.86887
G1 X109.053 Y55.474 E1.88707
G1 X109.201 Y56.001 E1.90531
G1 X109.277 Y56.75 E1.93038
G1 X109.281 Y105.332 E3.54867
G1 X109.241 Y105.878 E3.5669
G1 X109.122 Y106.412 E3.58513
G1 X108.927 Y106.923 E3.60335
G1 X108.659 Y107.401 E3.6216
G1 X108.188 Y107.979 E3.64644
G1 X107.928 Y108.24 E3.65871
G1 X107.514 Y108.598 E3.67694
G1 X107.053 Y108.893 E3.69517
G1 X106.553 Y109.117 E3.71342
G1 X106.027 Y109.266 E3.73163
G1 X105.27 Y109.343 E3.75698
G1 X56.817 Y109.333 E5.37097
G1 X56.271 Y109.293 E5.3892
G1 X55.737 Y109.174 E5.40743
G1 X55.226 Y108.978 E5.42566
G1 X54.749 Y108.71 E5.44388
G1 X54.145 Y108.213 E5.46994
G1 X53.905 Y107.969 E5.48134
G1 X53.55 Y107.551 E5.4996
G1 X53.26 Y107.087 E5.51783
G1 X53.041 Y106.586 E5.53604
G1 X52.897 Y106.057 E5.55431
G1 X52.828 Y105.338 E5.57837
G1 X52.838 Y56.738 E7.19725
G1 X52.878 Y56.192 E7.21549
G1 X52.997 Y55.658 E7.23371
G1 X53.193 Y55.147 E7.25194
G1 X53.461 Y54.67 E7.27017
G1 X53.947 Y54.077 E7.29571
G0 F2625 X54.299 Y54.432
G1 F900 X54.545 Y54.188 E7.30725
G1 X54.934 Y53.858 E7.32424
G1 X55.37 Y53.594 E7.34122
G1 X55.841 Y53.4 E7.35819
G1 X56.337 Y53.283 E7.37516
G1 X56.835 Y53.245 E7.3918
G1 X105.285 Y53.257 E9.00569
G1 X105.793 Y53.297 E9.02266
G1 X106.288 Y53.416 E9.03962
G1 X106.759 Y53.611 E9.0566
G1 X107.193 Y53.877 E9.07355
G1 X107.582 Y54.209 E9.09059
G1 X107.825 Y54.452 E9.10204
G1 X108.156 Y54.839 E9.119
G1 X108.422 Y55.274 E9.13598
G1 X108.617 Y55.744 E9.15293
G1 X108.737 Y56.24 E9.16993
G1 X108.777 Y56.75 E9.18697
G1 X108.781 Y105.332 E10.80526
G1 X108.741 Y105.84 E10.82223
G1 X108.622 Y106.335 E10.83919
G1 X108.428 Y106.806 E10.85616
G1 X108.162 Y107.241 E10.87314
G1 X107.834 Y107.626 E10.88999
G1 X107.574 Y107.887 E10.90226
G1 X107.187 Y108.218 E10.91922
G1 X106.753 Y108.485 E10.9362
G1 X106.283 Y108.682 E10.95317
G1 X105.787 Y108.802 E10.97017
G1 X105.27 Y108.843 E10.98745
G1 X56.817 Y108.833 E12.60143
G1 X56.309 Y108.793 E12.61841
G1 X55.814 Y108.674 E12.63537
G1 X55.343 Y108.479 E12.65235
G1 X54.909 Y108.213 E12.6693
G1 X54.501 Y107.862 E12.68723
G1 X54.261 Y107.618 E12.69863
G1 X53.933 Y107.228 E12.71561
G1 X53.671 Y106.791 E12.73258
G1 X53.479 Y106.319 E12.74955
G1 X53.364 Y105.823 E12.76651
G1 X53.328 Y105.338 E12.78271
G1 X53.338 Y56.738 E14.4016
G1 X53.378 Y56.23 E14.41857
G1 X53.497 Y55.735 E14.43553
G1 X53.692 Y55.264 E14.45251
G1 X53.958 Y54.83 E14.46947
G1 X54.299 Y54.432 E14.48692
G1 F600 E12.73692
;MESH:
G0 F2625 X55.9 Y57.25
G0 X57.328 Y57.249
G0 X57.418 Y104.61
G0 X57.318 Y104.61
;TYPE:WALL-INNER
G1 F600 E14.48692
G1 F900 X57.314 Y57.485 E16.05667
G1 X57.314 Y57.235 E16.065
G1 X57.564 Y57.235 E16.07039
G1 X104.789 Y57.234 E17.64347
G1 X104.791 Y104.853 E19.22968
G1 X57.568 Y104.86 E20.80269
G1 X57.318 Y104.86 E20.81102
G1 X57.318 Y104.61 E20.81641
G0 F2625 X57.418 Y104.61
G0 X73.868 Y100.918
G0 X73.923 Y100.835
G1 F900 X76.593 Y102.261 E20.91724
G1 X79.488 Y103.139 E21.01801
G1 X82.5 Y103.436 E21.11883
G1 X85.511 Y103.139 E21.21961
G1 X88.407 Y102.261 E21.32041
G1 X91.077 Y100.835 E21.42124
G1 X93.438 Y98.897 E21.52299
G1 X95.301 Y96.627 E21.62081
G1 X96.769 Y93.877 E21.72465
G1 X97.638 Y91.01 E21.82444
G1 X97.936 Y88 E21.92519
G1 X97.638 Y84.99 E22.02595
G1 X96.76 Y82.094 E22.12675
G1 X95.334 Y79.424 E22.22758
G1 X93.415 Y77.085 E22.32836
G1 X91.077 Y75.165 E22.42913
G1 X88.406 Y73.74 E22.52997
G1 X85.51 Y72.862 E22.63078
G1 X82.5 Y72.565 E22.73153
G1 X79.488 Y72.861 E22.83234
G1 X76.593 Y73.739 E22.93311
G1 X73.924 Y75.166 E23.03393
G1 X71.585 Y77.086 E23.13473
G1 X69.665 Y79.423 E23.23548
G1 X68.239 Y82.093 E23.33631
G1 X67.361 Y84.989 E23.43711
G1 X67.065 Y88 E23.53789
G1 X67.362 Y91.01 E23.63864
G1 X68.238 Y93.904 E23.73936
G1 X69.67 Y96.581 E23.84049
G1 X71.584 Y98.912 E23.94096
G1 X73.923 Y100.835 E24.04182
G0 F2625 X73.868 Y100.918
G0 X57.388 Y104.79
G0 X56.818 Y105.075
;TYPE:WALL-OUTER
G1 F900 X56.814 Y57.019 E25.64258
G1 X56.814 Y56.853 E25.64811
G1 X56.933 Y56.735 E25.6537
G1 X57.099 Y56.735 E25.65923
G1 X105.169 Y56.734 E27.26045
G1 X105.289 Y56.854 E27.26611
G1 X105.291 Y105.233 E28.87763
G1 X105.171 Y105.353 E28.88328
G1 X57.103 Y105.36 E30.48444
G1 X56.936 Y105.36 E30.49001
G1 X56.818 Y105.242 E30.49557
G1 X56.818 Y105.075 E30.50113
G0 F2625 X56.818 Y104.825
G0 X57.418 Y104.825
G0 X82.5 Y103.476
G0 X85.518 Y103.178
G0 X88.422 Y102.297
G0 X91.099 Y100.868
G0 X93.466 Y98.925
G0 X95.334 Y96.649
G0 X96.805 Y93.892
G0 X97.677 Y91.017
G0 X98.03 Y88.058
G0 X97.434 Y88
G1 F900 X97.145 Y85.088 E30.59861
G1 X96.296 Y82.286 E30.69613
G1 X94.916 Y79.703 E30.79368
G1 X93.06 Y77.44 E30.89117
G1 X90.798 Y75.583 E30.98866
G1 X88.214 Y74.204 E31.08622
G1 X85.412 Y73.355 E31.18375
G1 X82.5 Y73.067 E31.28122
G1 X79.586 Y73.354 E31.37876
G1 X76.785 Y74.203 E31.47625
G1 X74.203 Y75.584 E31.57379
G1 X71.94 Y77.441 E31.6713
G1 X70.083 Y79.702 E31.76876
G1 X68.703 Y82.285 E31.86631
G1 X67.854 Y85.087 E31.96384
G1 X67.567 Y88 E32.06134
G1 X67.855 Y90.912 E32.15882
G1 X68.702 Y93.712 E32.25626
G1 X70.088 Y96.302 E32.35411
G1 X71.939 Y98.557 E32.45129
G1 X74.202 Y100.417 E32.54886
G1 X76.785 Y101.797 E32.64641
G1 X79.586 Y102.646 E32.74391
G1 X82.5 Y102.934 E32.84145
G1 X85.413 Y102.646 E32.93895
G1 X88.215 Y101.797 E33.03648
G1 X90.798 Y100.417 E33.13403
G1 X93.083 Y98.542 E33.23249
G1 X94.883 Y96.348 E33.32702
G1 X96.305 Y93.685 E33.42758
G1 X97.145 Y90.912 E33.5241
G1 X97.434 Y88 E33.62157
G0 F2625 X97.41 Y87.752
G0 X98.006 Y87.695
G0 X98.428 Y88
;TYPE:SKIN
G1 F900 X98.121 Y84.894 E33.72554
G1 X97.215 Y81.906 E33.82954
G1 X95.744 Y79.15 E33.93361
G1 X93.764 Y76.737 E34.03758
G1 X91.351 Y74.755 E34.1416
G1 X88.594 Y73.285 E34.24567
G1 X85.606 Y72.379 E34.34968
G1 X82.5 Y72.073 E34.45364
G1 X79.392 Y72.378 E34.55767
G1 X76.405 Y73.284 E34.66164
G1 X73.65 Y74.756 E34.76569
G1 X71.237 Y76.737 E34.86968
G1 X69.255 Y79.149 E34.97367
G1 X67.784 Y81.905 E35.07774
G1 X66.878 Y84.893 E35.18174
G1 X66.573 Y88 E35.28574
G1 X66.879 Y91.106 E35.3897
G1 X67.783 Y94.092 E35.49362
G1 X69.261 Y96.855 E35.598
G1 X71.235 Y99.26 E35.70164
G1 X73.649 Y101.245 E35.80574
G1 X76.405 Y102.716 E35.90981
G1 X79.392 Y103.622 E36.01378
G1 X82.5 Y103.928 E36.11781
G1 X85.607 Y103.622 E36.22181
G1 X88.595 Y102.716 E36.32581
G1 X91.351 Y101.245 E36.42987
G1 X93.787 Y99.246 E36.53484
G1 X95.711 Y96.901 E36.63588
G1 X97.224 Y94.065 E36.74295
G1 X98.121 Y91.106 E36.84595
G1 X98.428 Y88 E36.94991
G0 F2625 X104.301 Y104.363
G1 F900 X57.808 Y104.37 E38.49861
G1 X57.804 Y57.725 E40.05237
G1 X104.299 Y57.724 E41.60114
G1 X104.301 Y104.363 E43.1547
G0 F2625 X58.182 Y104.144
G1 F900 X58.032 Y103.994 E43.16177
G0 F2625 X58.032 Y103.287
G1 F900 X58.889 Y104.144 E43.20214
G0 F2625 X59.596 Y104.144
G1 F900 X58.032 Y102.579 E43.27584
G0 F2625 X58.032 Y101.872
G1 F900 X60.303 Y104.144 E43.38284
G0 F2625 X61.01 Y104.144
G1 F900 X58.032 Y101.165 E43.52316
G0 F2625 X58.032 Y100.458
G1 F900 X61.717 Y104.144 E43.69677
G0 F2625 X62.424 Y104.143
G1 F900 X58.032 Y99.751 E43.90367
G0 F2625 X58.032 Y99.044
G1 F900 X63.131 Y104.143 E44.14387
G0 F2625 X63.838 Y104.143
G1 F900 X58.032 Y98.337 E44.41738
G0 F2625 X58.032 Y97.63
G1 F900 X64.545 Y104.143 E44.7242
G0 F2625 X65.252 Y104.143
G1 F900 X58.031 Y96.922 E45.06436
G0 F2625 X58.031 Y96.215
G1 F900 X65.959 Y104.143 E45.43784
G0 F2625 X66.666 Y104.142
G1 F900 X58.031 Y95.508 E45.84459
G0 F2625 X58.031 Y94.801
G1 F900 X67.373 Y104.142 E46.28465
G0 F2625 X68.08 Y104.142
G1 F900 X58.031 Y94.093 E46.75804
G0 F2625 X58.031 Y93.386
G1 F900 X68.787 Y104.142 E47.26473
G0 F2625 X69.494 Y104.142
G1 F900 X58.031 Y92.679 E47.80473
G0 F2625 X58.031 Y91.972
G1 F900 X70.2 Y104.141 E48.37798
G0 F2625 X70.907 Y104.141
G1 F900 X58.031 Y91.265 E48.98455
G0 F2625 X58.03 Y90.557
G1 F900 X71.615 Y104.141 E49.62448
G0 F2625 X72.322 Y104.141
G1 F900 X58.03 Y89.85 E50.29773
G0 F2625 X58.03 Y89.143
G1 F900 X73.029 Y104.141 E51.00428
G0 F2625 X73.736 Y104.141
G1 F900 X58.03 Y88.436 E51.74413
G0 F2625 X58.03 Y87.729
G1 F900 X74.442 Y104.141 E52.51727
G0 F2625 X75.149 Y104.141
G1 F900 X58.03 Y87.022 E53.32371
G0 F2625 X58.03 Y86.315
G1 F900 X70.802 Y99.086 E53.92535
G0 F2625 X71.411 Y99.695
G1 F900 X75.857 Y104.141 E54.13479
G0 F2625 X76.564 Y104.141
G1 F900 X74.236 Y101.813 E54.24446
G1 X74.148 Y101.725
G0 F2625 X75.752 Y102.622
G1 F900 X77.271 Y104.141 E54.31601
G0 F2625 X77.977 Y104.14
G1 F900 X76.954 Y103.117 E54.36421
G1 X76.866 Y103.029
G0 F2625 X77.968 Y103.424
G0 X78.326 Y103.782
G1 F900 X79.187 Y103.935 E54.3842
G1 X81.465 Y104.092 E54.43639
G1 X85.615 Y103.999 E54.53128
G1 X87.503 Y103.766 E54.57476
G0 F2625 X87.673 Y103.229
G1 F900 X88.582 Y104.139 E54.61761
G0 F2625 X89.289 Y104.139
G1 F900 X88.216 Y103.065 E54.66818
G0 F2625 X88.746 Y102.888
G1 F900 X89.997 Y104.139 E54.72711
G0 F2625 X90.704 Y104.139
G1 F900 X89.207 Y102.642 E54.79763
G0 F2625 X89.669 Y102.397
G1 F900 X91.411 Y104.139 E54.87969
G0 F2625 X92.117 Y104.138
G1 F900 X90.13 Y102.151 E54.9733
G0 F2625 X90.591 Y101.905
G1 F900 X92.824 Y104.138 E55.07849
G0 F2625 X93.531 Y104.138
G1 F900 X91.052 Y101.659 E55.19527
G0 F2625 X91.508 Y101.407
G1 F900 X94.238 Y104.138 E55.3239
G0 F2625 X94.946 Y104.138
G1 F900 X91.896 Y101.088 E55.46758
G0 F2625 X92.285 Y100.77
G1 F900 X95.653 Y104.138 E55.62624
G0 F2625 X96.359 Y104.137
G1 F900 X92.673 Y100.451 E55.79988
G0 F2625 X93.061 Y100.132
G1 F900 X97.066 Y104.137 E55.98854
G0 F2625 X97.773 Y104.137
G1 F900 X93.449 Y99.813 E56.19224
G0 F2625 X93.838 Y99.495
G1 F900 X98.48 Y104.137 E56.41091
G0 F2625 X99.187 Y104.137
G1 F900 X94.176 Y99.125 E56.647
G0 F2625 X94.494 Y98.737
G1 F900 X99.894 Y104.137 E56.90138
G0 F2625 X100.601 Y104.137
G1 F900 X94.813 Y98.348 E57.17406
G0 F2625 X95.132 Y97.96
G1 F900 X101.308 Y104.137 E57.46503
G0 F2625 X102.015 Y104.137
G1 F900 X95.45 Y97.572 E57.77429
G0 F2625 X95.769 Y97.184
G1 F900 X102.722 Y104.137 E58.10183
G0 F2625 X103.429 Y104.137
G1 F900 X96.044 Y96.752 E58.44972
G0 F2625 X96.29 Y96.29
G1 F900 X104.076 Y104.076 E58.81651
G0 F2625 X104.076 Y103.369
G1 F900 X96.536 Y95.829 E59.1717
G0 F2625 X96.782 Y95.368
G1 F900 X104.076 Y102.662 E59.51531
G0 F2625 X104.076 Y101.954
G1 F900 X97.028 Y94.907 E59.8473
G0 F2625 X97.274 Y94.446
G1 F900 X104.076 Y101.247 E60.1677
G0 F2625 X104.076 Y100.54
G1 F900 X97.49 Y93.955 E60.47793
G0 F2625 X97.655 Y93.413
G1 F900 X104.076 Y99.833 E60.78039
G0 F2625 X104.076 Y99.126
G1 F900 X97.819 Y92.869 E61.07514
G0 F2625 X97.984 Y92.327
G1 F900 X104.076 Y98.419 E61.36213
G0 F2625 X104.076 Y97.712
G1 F900 X98.148 Y91.784 E61.64138
G0 F2625 X98.313 Y91.242
G1 F900 X104.076 Y97.005 E61.91287
G0 F2625 X104.076 Y96.298
G1 F900 X98.393 Y90.615 E62.18058
G0 F2625 X98.457 Y89.972
G1 F900 X104.076 Y95.59 E62.44526
G0 F2625 X104.076 Y94.883
G1 F900 X98.521 Y89.328 E62.70694
G0 F2625 X98.584 Y88.685
G1 F900 X104.076 Y94.176 E62.96563
G0 F2625 X104.076 Y93.469
G1 F900 X98.647 Y88.041 E63.22136
G0 F2625 X98.579 Y87.266
G1 F900 X104.076 Y92.762 E63.48029
G0 F2625 X104.075 Y92.054
G1 F900 X98.502 Y86.481 E63.74282
G0 F2625 X98.425 Y85.697
G1 F900 X104.075 Y91.347 E64.00898
G0 F2625 X104.075 Y90.64
G1 F900 X98.347 Y84.912 E64.27882
G1 X98.259 Y84.824
G0 F2625 X98.058 Y83.915
G1 F900 X104.075 Y89.933 E64.56229
G0 F2625 X104.075 Y89.226
G1 F900 X97.75 Y82.901 E64.86025
G1 X97.662 Y82.813
G0 F2625 X97.442 Y81.886
G1 F900 X104.075 Y88.519 E65.17271
G0 F2625 X104.075 Y87.812
G1 F900 X96.666 Y80.402 E65.52176
G1 X96.578 Y80.314
G0 F2625 X95.639 Y78.669
G1 F900 X104.075 Y87.104 E65.91914
G0 F2625 X104.075 Y86.397
G1 F900 X75.627 Y57.95 E67.25924
G0 F2625 X74.92 Y57.95
G1 F900 X91.817 Y74.847 E68.05523
G1 X91.905 Y74.935
G0 F2625 X90.093 Y73.829
G1 F900 X74.213 Y57.95 E68.80328
G0 F2625 X73.506 Y57.95
G1 F900 X88.611 Y73.055 E69.51484
G1 X88.699 Y73.143
G0 F2625 X87.597 Y72.747
G1 F900 X72.799 Y57.95 E70.21192
G0 F2625 X72.092 Y57.95
G1 F900 X86.582 Y72.44 E70.89452
G1 X86.67 Y72.528
G0 F2625 X85.586 Y72.151
G1 F900 X71.385 Y57.95 E71.5635
G0 F2625 X70.678 Y57.95
G1 F900 X84.801 Y72.073 E72.2288
G0 F2625 X84.017 Y71.996
G1 F900 X69.971 Y57.95 E72.89048
G0 F2625 X69.263 Y57.95
G1 F900 X83.232 Y71.919 E73.54853
G0 F2625 X82.457 Y71.85
G1 F900 X68.556 Y57.95 E74.20336
G0 F2625 X67.849 Y57.95
G1 F900 X81.813 Y71.914 E74.86117
G0 F2625 X81.17 Y71.977
G1 F900 X67.142 Y57.95 E75.52198
G0 F2625 X66.435 Y57.95
G1 F900 X80.526 Y72.04 E76.18575
G0 F2625 X79.882 Y72.104
G1 F900 X65.728 Y57.95 E76.85252
G0 F2625 X65.021 Y57.95
G1 F900 X79.256 Y72.184 E77.52308
G0 F2625 X78.713 Y72.349
G1 F900 X64.314 Y57.95 E78.20139
G0 F2625 X63.607 Y57.95
G1 F900 X78.17 Y72.513 E78.88742
G0 F2625 X77.627 Y72.677
G1 F900 X62.899 Y57.95 E79.5812
G0 F2625 X62.192 Y57.95
G1 F900 X77.085 Y72.842 E80.28276
G0 F2625 X76.542 Y73.006
G1 F900 X61.485 Y57.95 E80.99204
G0 F2625 X60.778 Y57.95
G1 F900 X76.047 Y73.219 E81.71133
G0 F2625 X75.586 Y73.465
G1 F900 X60.071 Y57.95 E82.44221
G0 F2625 X59.364 Y57.95
G1 F900 X75.125 Y73.711 E83.18468
G0 F2625 X74.664 Y73.957
G1 F900 X58.657 Y57.95 E83.93874
G0 F2625 X58.028 Y58.028
G1 F900 X74.203 Y74.203 E84.70071
G0 F2625 X73.742 Y74.449
G1 F900 X58.028 Y58.735 E85.44096
G0 F2625 X58.028 Y59.442
G1 F900 X73.319 Y74.734 E86.16131
