;Generated by Cura LulzBot Edition GCodeWriter Version: 3.6.37
;FLAVOR:Marlin
;TIME:2040
;Filament used: 0.959864m
;Layer height: 0.25
;Generated with Cura_SteamEngine 3.6.37-macos
M82 ;absolute extrusion mode
;This G-Code has been generated specifically for the LulzBot Mini 2 with SE 0.5mm Tool Head
;
;The following lines can be uncommented for printer specific fine tuning
;More information can be found at https://marlinfw.org/meta/gcode/
;
;M92 E420                 ;Set Axis Steps-per-unit
;M301 P21.0 I1.78 D61.93  ;Set Hotend PID
;M906 E960                ;TMC Motor Current
;
M73 P0                  ; clear GLCD progress bar
M75 					; Start GLCD Print Timer
G26 					; clear potential 'probe fail' condition
M107 					; disable fans
M420 S0                 ; disable leveling matrix
G90 					; absolute positioning
M82 					; set extruder to absolute mode
G92 E0 					; set extruder position to 0
M140 S60.0 ; start bed heating up
G28 					; home all axes
G0 X0 Y187 Z156 F200 			; move away from endstops
M117 Mini 2 Wiping...			; progress indicator message on LCD
M109 R140 	; soften filament before retraction
G1 E-15 F75 				; retract filament
M109 R140                  ; wait for extruder to reach wiping temp
;M206 X0 Y0 Z0              ; uncomment to adjust wipe position (+X ~ nozzle moves left)(+Y ~ nozzle moves forward)(+Z ~ nozzle moves down)
G12                         ; wiping sequence
M206 X0 Y0 Z0               ; reseting stock nozzle position ### CAUTION: changing this line can affect print quality ###
G28 X0 Y0				; home X and Y
M109 R140	; wait for extruder to reach probe temp
M204 S300				; set probing acceleration
G29					; start auto-leveling sequence
M420 S1                     ; enable leveling matrix
M425 Z			     		; use measured Z backlash for compensation
M425 Z F0		     		; turn off measured Z backlash compensation. (if activated in the quality settings, this command will automatically be ignored)
M204 S2000				; restore standard acceleration
G1 X5 Y15 Z10 F5000			; move up off last probe point
G4 S1					; pause
M400					; wait for moves to finish
M117 Heating...				; progress indicator message on LCD
M109 R210 ; wait for extruder to reach initial printing temp
M190 R60.0 ; wait for bed to reach printing temp
G1 Z2 E0 F75				; prime tiny bit of filament into the nozzle
M117 Mini 2 Printing...		; progress indicator message on LCD

M221 S100 T0
G92 E0
G1 F600 E-1.75
;LAYER_COUNT:32
;LAYER:0
M107
G0 F2625 X53.947 Y54.077 Z0.425
;TYPE:SKIRT
G1 F600 E0
G1 F900 X54.193 Y53.833 E0.01154
G1 X54.609 Y53.476 E0.0298
G1 X55.072 Y53.185 E0.04802
G1 X55.573 Y52.963 E0.06627
G1 X56.1 Y52.817 E0.08449
G1 X56.835 Y52.745 E0.10909
G1 X105.285 Y52.757 E1.72297
G1 X105.831 Y52.797 E1.74121
G1 X106.365 Y52.916 E1.75943
G1 X106.876 Y53.112 E1.77767
G1 X107.354 Y53.38 E1.79592
G1 X107.936 Y53.855 E1.82094
G1 X108.179 Y54.098 E1.83239
G1 X108.536 Y54.513 E1.85063
G1 X108.83 Y54.975 E1.86887
G1 X109.053 Y55.474 E1.88707
G1 X109.201 Y56.001 E1.90531
G1 X109.277 Y56.75 E1.93038
G1 X109.281 Y105.332 E3.54867
G1 X109.241 Y105.878 E3.5669
G1 X109.122 Y106.412 E3.58513
G1 X108.927 Y106.923 E3.60335
G1 X108.659 Y107.401 E3.6216
G1 X108.188 Y107.979 E3.64644
G1 X107.928 Y108.24 E3.65871
G1 X107.514 Y108.598 E3.67694
G1 X107.053 Y108.893 E3.69517
G1 X106.553 Y109.117 E3.71342
G1 X106.027 Y109.266 E3.73163
G1 X105.27 Y109.343 E3.75698
G1 X56.817 Y109.333 E5.37097
G1 X56.271 Y109.293 E5.3892
G1 X55.737 Y109.174 E5.40743
G1 X55.226 Y108.978 E5.42566
G1 X54.749 Y108.71 E5.44388
G1 X54.145 Y108.213 E5.46994
G1 X53.905 Y107.969 E5.48134
G1 X53.55 Y107.551 E5.4996
G1 X53.26 Y107.087 E5.51783
G1 X53.041 Y106.586 E5.53604
G1 X52.897 Y106.057 E5.55431
G1 X52.828 Y105.338 E5.57837
G1 X52.838 Y56.738 E7.19725
G1 X52.878 Y56.192 E7.21549
G1 X52.997 Y55.658 E7.23371
G1 X53.193 Y55.147 E7.25194
G1 X53.461 Y54.67 E7.27017
G1 X53.947 Y54.077 E7.29571
G0 F2625 X54.299 Y54.432
G1 F900 X54.545 Y54.188 E7.30725
G1 X54.934 Y53.858 E7.32424
G1 X55.37 Y53.594 E7.34122
G1 X55.841 Y53.4 E7.35819
G1 X56.337 Y53.283 E7.37516
G1 X56.835 Y53.245 E7.3918
G1 X105.285 Y53.257 E9.00569
G1 X105.793 Y53.297 E9.02266
G1 X106.288 Y53.416 E9.03962
G1 X106.759 Y53.611 E9.0566
G1 X107.193 Y53.877 E9.07355
G1 X107.582 Y54.209 E9.09059
G1 X107.825 Y54.452 E9.10204
G1 X108.156 Y54.839 E9.119
G1 X108.422 Y55.274 E9.13598
G1 X108.617 Y55.744 E9.15293
G1 X108.737 Y56.24 E9.16993
G1 X108.777 Y56.75 E9.18697
G1 X108.781 Y105.332 E10.80526
G1 X108.741 Y105.84 E10.82223
G1 X108.622 Y106.335 E10.83919
G1 X108.428 Y106.806 E10.85616
G1 X108.162 Y107.241 E10.87314
G1 X107.834 Y107.626 E10.88999
G1 X107.574 Y107.887 E10.90226
G1 X107.187 Y108.218 E10.91922
G1 X106.753 Y108.485 E10.9362
G1 X106.283 Y108.682 E10.95317
G1 X105.787 Y108.802 E10.97017
G1 X105.27 Y108.843 E10.98745
G1 X56.817 Y108.833 E12.60143
G1 X56.309 Y108.793 E12.61841
G1 X55.814 Y108.674 E12.63537
G1 X55.343 Y108.479 E12.65235
G1 X54.909 Y108.213 E12.6693
G1 X54.501 Y107.862 E12.68723
G1 X54.261 Y107.618 E12.69863
G1 X53.933 Y107.228 E12.71561
G1 X53.671 Y106.791 E12.73258
G1 X53.479 Y106.319 E12.74955
G1 X53.364 Y105.823 E12.76651
G1 X53.328 Y105.338 E12.78271
G1 X53.338 Y56.738 E14.4016
G1 X53.378 Y56.23 E14.41857
G1 X53.497 Y55.735 E14.43553
G1 X53.692 Y55.264 E14.45251
G1 X53.958 Y54.83 E14.46947
G1 X54.299 Y54.432 E14.48692
G1 F600 E12.73692
;MESH:
G0 F2625 X55.9 Y57.25
G0 X57.328 Y57.249
G0 X57.418 Y104.61
G0 X57.318 Y104.61
;TYPE:WALL-INNER
G1 F600 E14.48692
G1 F900 X57.314 Y57.485 E16.05667
G1 X57.314 Y57.235 E16.065
G1 X57.564 Y57.235 E16.07039
G1 X104.789 Y57.234 E17.64347
G1 X104.791 Y104.853 E19.22968
G1 X57.568 Y104.86 E20.80269
G1 X57.318 Y104.86 E20.81102
G1 X57.318 Y104.61 E20.81641
G0 F2625 X57.418 Y104.61
G0 X73.868 Y100.918
G0 X73.923 Y100.835
G1 F900 X76.593 Y102.261 E20.91724
G1 X79.488 Y103.139 E21.01801
G1 X82.5 Y103.436 E21.11883
G1 X85.511 Y103.139 E21.21961
G1 X88.407 Y102.261 E21.32041
G1 X91.077 Y100.835 E21.42124
G1 X93.438 Y98.897 E21.52299
G1 X95.301 Y96.627 E21.62081
G1 X96.769 Y93.877 E21.72465
G1 X97.638 Y91.01 E21.82444
G1 X97.935 Y88 E21.92519
G1 X97.639 Y84.989 E22.02597
G1 X96.761 Y82.093 E22.12677
G1 X95.335 Y79.423 E22.2276
G1 X93.415 Y77.085 E22.32838
G1 X91.077 Y75.165 E22.42915
G1 X88.407 Y73.739 E22.52998
G1 X85.511 Y72.861 E22.63078
G1 X82.5 Y72.564 E22.73157
G1 X79.488 Y72.861 E22.83238
G1 X76.593 Y73.739 E22.93315
G1 X73.923 Y75.165 E23.03398
G1 X71.584 Y77.085 E23.13478
G1 X69.666 Y79.424 E23.23554
G1 X68.24 Y82.094 E23.33637
G1 X67.362 Y84.99 E23.43717
G1 X67.065 Y88 E23.53792
G1 X67.361 Y91.011 E23.63871
G1 X68.238 Y93.904 E23.7394
G1 X69.669 Y96.582 E23.84054
G1 X71.584 Y98.912 E23.94101
G1 X73.923 Y100.835 E24.04187
G0 F2625 X74.202 Y100.417
;TYPE:WALL-OUTER
G1 F900 X76.785 Y101.797 E24.13942
G1 X79.586 Y102.646 E24.23692
G1 X82.5 Y102.934 E24.33446
G1 X85.413 Y102.646 E24.43196
G1 X88.215 Y101.797 E24.52949
G1 X90.798 Y100.417 E24.62704
G1 X93.083 Y98.542 E24.7255
G1 X94.883 Y96.348 E24.82003
G1 X96.305 Y93.685 E24.92059
G1 X97.145 Y90.912 E25.0171
G1 X97.433 Y88 E25.11458
G1 X97.146 Y85.087 E25.21208
G1 X96.297 Y82.285 E25.30961
G1 X94.917 Y79.702 E25.40716
G1 X93.06 Y77.44 E25.50464
G1 X90.798 Y75.583 E25.60213
G1 X88.215 Y74.203 E25.69968
G1 X85.413 Y73.354 E25.79721
G1 X82.5 Y73.066 E25.89471
G1 X79.586 Y73.354 E25.99225
G1 X76.785 Y74.203 E26.08975
G1 X74.202 Y75.583 E26.1873
G1 X71.939 Y77.44 E26.28481
G1 X70.084 Y79.703 E26.38228
G1 X68.704 Y82.286 E26.47983
G1 X67.855 Y85.088 E26.57736
G1 X67.567 Y88 E26.67483
G1 X67.854 Y90.913 E26.77233
G1 X68.702 Y93.712 E26.86975
G1 X70.087 Y96.303 E26.96762
G1 X71.939 Y98.557 E27.06479
G1 X74.202 Y100.417 E27.16237
G0 F2625 X74.422 Y100.534
G0 X74.138 Y101.063
G0 X57.388 Y104.79
G0 X56.818 Y105.075
G1 F900 X56.814 Y57.019 E28.76313
G1 X56.814 Y56.853 E28.76866
G1 X56.933 Y56.735 E28.77424
G1 X57.099 Y56.735 E28.77977
G1 X105.169 Y56.734 E30.381
G1 X105.289 Y56.854 E30.38665
G1 X105.291 Y105.233 E31.99817
G1 X105.171 Y105.353 E32.00383
G1 X57.103 Y105.36 E33.60499
G1 X56.936 Y105.36 E33.61055
G1 X56.818 Y105.242 E33.61611
G1 X56.818 Y105.075 E33.62167
G0 F2625 X56.818 Y104.825
G0 X57.418 Y104.825
G0 X57.808 Y104.37
;TYPE:SKIN
G1 F900 X57.804 Y57.725 E35.17544
G1 X104.299 Y57.724 E36.7242
G1 X104.301 Y104.363 E38.27776
G1 X57.808 Y104.37 E39.82646
G0 F2625 X69.259 Y96.856
G1 F900 X71.235 Y99.261 E39.93015
G1 X73.649 Y101.245 E40.03423
G1 X76.405 Y102.716 E40.13829
G1 X79.392 Y103.622 E40.24227
G1 X82.5 Y103.928 E40.3463
G1 X85.607 Y103.622 E40.45029
G1 X88.595 Y102.716 E40.5543
G1 X91.351 Y101.245 E40.65836
G1 X93.787 Y99.246 E40.76333
G1 X95.711 Y96.901 E40.86437
G1 X97.224 Y94.065 E40.97144
G1 X98.121 Y91.106 E41.07443
G1 X98.427 Y88 E41.1784
G1 X98.122 Y84.893 E41.28239
G1 X97.216 Y81.905 E41.38639
G1 X95.745 Y79.149 E41.49046
G1 X93.764 Y76.736 E41.59445
G1 X91.351 Y74.755 E41.69845
G1 X88.595 Y73.284 E41.80251
G1 X85.607 Y72.378 E41.90651
G1 X82.5 Y72.072 E42.01051
G1 X79.392 Y72.378 E42.11454
G1 X76.405 Y73.284 E42.21851
G1 X73.649 Y74.755 E42.32257
G1 X71.235 Y76.737 E42.42662
G1 X69.256 Y79.151 E42.5306
G1 X67.785 Y81.906 E42.63463
G1 X66.879 Y84.894 E42.73863
G1 X66.573 Y88 E42.8426
G1 X66.878 Y91.107 E42.94659
G1 X67.783 Y94.092 E43.05049
G1 X69.259 Y96.856 E43.15487
G0 F2625 X58.182 Y104.144
G1 F900 X58.032 Y103.994 E43.16193
G0 F2625 X58.032 Y103.287
G1 F900 X58.889 Y104.144 E43.2023
G0 F2625 X59.596 Y104.144
G1 F900 X58.032 Y102.579 E43.276
G0 F2625 X58.032 Y101.872
G1 F900 X60.303 Y104.144 E43.38301
G0 F2625 X61.01 Y104.144
G1 F900 X58.032 Y101.165 E43.52332
G0 F2625 X58.032 Y100.458
G1 F900 X61.717 Y104.144 E43.69694
G0 F2625 X62.424 Y104.143
G1 F900 X58.032 Y99.751 E43.90383
G0 F2625 X58.032 Y99.044
G1 F900 X63.131 Y104.143 E44.14404
G0 F2625 X63.838 Y104.143
G1 F900 X58.032 Y98.337 E44.41755
G0 F2625 X58.032 Y97.63
G1 F900 X64.545 Y104.143 E44.72436
G0 F2625 X65.252 Y104.143
G1 F900 X58.031 Y96.922 E45.06453
G0 F2625 X58.031 Y96.215
G1 F900 X65.959 Y104.143 E45.438
G0 F2625 X66.666 Y104.142
G1 F900 X58.031 Y95.508 E45.84475
G0 F2625 X58.031 Y94.801
G1 F900 X67.373 Y104.142 E46.28481
G0 F2625 X68.08 Y104.142
G1 F900 X58.031 Y94.093 E46.7582
G0 F2625 X58.031 Y93.386
G1 F900 X68.787 Y104.142 E47.26489
G0 F2625 X69.494 Y104.142
G1 F900 X58.031 Y92.679 E47.80489
G0 F2625 X58.031 Y91.972
G1 F900 X70.2 Y104.141 E48.37815
G0 F2625 X70.907 Y104.141
G1 F900 X58.031 Y91.265 E48.98471
G0 F2625 X58.03 Y90.557
G1 F900 X71.615 Y104.141 E49.62465
G0 F2625 X72.322 Y104.141
G1 F900 X58.03 Y89.85 E50.29789
G0 F2625 X58.03 Y89.143
G1 F900 X73.029 Y104.141 E51.00444
G0 F2625 X73.736 Y104.141
G1 F900 X58.03 Y88.436 E51.7443
G0 F2625 X58.03 Y87.729
G1 F900 X74.442 Y104.141 E52.51743
G0 F2625 X75.149 Y104.141
G1 F900 X58.03 Y87.022 E53.32387
G0 F2625 X58.03 Y86.315
G1 F900 X70.794 Y99.079 E53.92516
G0 F2625 X71.417 Y99.702
G1 F900 X75.857 Y104.141 E54.13429
G0 F2625 X76.564 Y104.141
G1 F900 X74.236 Y101.813 E54.24396
G1 X74.148 Y101.725
G0 F2625 X75.752 Y102.622
G1 F900 X77.271 Y104.141 E54.31552
G0 F2625 X77.977 Y104.14
G1 F900 X76.954 Y103.117 E54.36371
G1 X76.866 Y103.029
G0 F2625 X77.968 Y103.424
G0 X78.326 Y103.782
G1 F900 X79.187 Y103.935 E54.3837
G1 X81.465 Y104.092 E54.4359
G1 X85.615 Y103.999 E54.53078
G1 X87.503 Y103.766 E54.57427
G0 F2625 X87.673 Y103.229
G1 F900 X88.582 Y104.139 E54.61711
G0 F2625 X89.289 Y104.139
G1 F900 X88.216 Y103.065 E54.66768
G0 F2625 X88.746 Y102.888
G1 F900 X89.997 Y104.139 E54.72662
G0 F2625 X90.704 Y104.139
G1 F900 X89.207 Y102.642 E54.79714
G0 F2625 X89.669 Y102.397
G1 F900 X91.411 Y104.139 E54.8792
G0 F2625 X92.117 Y104.138
G1 F900 X90.13 Y102.151 E54.9728
G0 F2625 X90.591 Y101.905
G1 F900 X92.824 Y104.138 E55.07799
G0 F2625 X93.531 Y104.138
G1 F900 X91.052 Y101.659 E55.19478
G0 F2625 X91.508 Y101.407
G1 F900 X94.238 Y104.138 E55.3234
G0 F2625 X94.946 Y104.138
G1 F900 X91.896 Y101.088 E55.46708
G0 F2625 X92.285 Y100.77
G1 F900 X95.653 Y104.138 E55.62574
G0 F2625 X96.359 Y104.137
G1 F900 X92.673 Y100.451 E55.79938
G0 F2625 X93.061 Y100.132
G1 F900 X97.066 Y104.137 E55.98805
G0 F2625 X97.773 Y104.137
G1 F900 X93.449 Y99.813 E56.19174
G0 F2625 X93.838 Y99.495
G1 F900 X98.48 Y104.137 E56.41042
G0 F2625 X99.187 Y104.137
G1 F900 X94.176 Y99.125 E56.6465
G0 F2625 X94.494 Y98.737
G1 F900 X99.894 Y104.137 E56.90088
G0 F2625 X100.601 Y104.137
G1 F900 X94.813 Y98.348 E57.17357
G0 F2625 X95.132 Y97.96
G1 F900 X101.308 Y104.137 E57.46453
G0 F2625 X102.015 Y104.137
G1 F900 X95.45 Y97.572 E57.77379
G0 F2625 X95.769 Y97.184
G1 F900 X102.722 Y104.137 E58.10134
G0 F2625 X103.429 Y104.137
G1 F900 X96.044 Y96.752 E58.44923
G0 F2625 X96.29 Y96.29
G1 F900 X104.076 Y104.076 E58.81601
G0 F2625 X104.076 Y103.369
G1 F900 X96.536 Y95.829 E59.17121
G0 F2625 X96.782 Y95.368
G1 F900 X104.076 Y102.662 E59.51481
G0 F2625 X104.076 Y101.954
G1 F900 X97.028 Y94.907 E59.8468
G0 F2625 X97.274 Y94.446
G1 F900 X104.076 Y101.247 E60.16721
G0 F2625 X104.076 Y100.54
G1 F900 X97.49 Y93.955 E60.47744
G0 F2625 X97.655 Y93.413
G1 F900 X104.076 Y99.833 E60.7799
G0 F2625 X104.076 Y99.126
G1 F900 X97.819 Y92.869 E61.07465
G0 F2625 X97.984 Y92.327
G1 F900 X104.076 Y98.419 E61.36163
G0 F2625 X104.076 Y97.712
G1 F900 X98.148 Y91.784 E61.64089
G0 F2625 X98.313 Y91.242
G1 F900 X104.076 Y97.005 E61.91237
G0 F2625 X104.076 Y96.298
G1 F900 X98.393 Y90.615 E62.18009
G0 F2625 X98.457 Y89.972
G1 F900 X104.076 Y95.59 E62.44476
G0 F2625 X104.076 Y94.883
G1 F900 X98.521 Y89.328 E62.70645
G0 F2625 X98.584 Y88.685
G1 F900 X104.076 Y94.176 E62.96514
G0 F2625 X104.076 Y93.469
G1 F900 X98.647 Y88.041 E63.22087
G0 F2625 X98.58 Y87.266
G1 F900 X104.076 Y92.762 E63.47977
G0 F2625 X104.075 Y92.054
G1 F900 X98.502 Y86.481 E63.7423
G0 F2625 X98.425 Y85.697
G1 F900 X104.075 Y91.347 E64.00846
G0 F2625 X104.075 Y90.64
G1 F900 X98.348 Y84.913 E64.27825
G1 X98.26 Y84.825
G0 F2625 X98.06 Y83.918
G1 F900 X104.075 Y89.933 E64.5616
G0 F2625 X104.075 Y89.226
G1 F900 X97.753 Y82.904 E64.85942
G1 X97.665 Y82.816
G0 F2625 X97.445 Y81.889
G1 F900 X104.075 Y88.519 E65.17175
G0 F2625 X104.075 Y87.812
G1 F900 X96.67 Y80.407 E65.52058
G1 X96.582 Y80.319
G0 F2625 X95.652 Y78.681
G1 F900 X104.075 Y87.104 E65.91737
G0 F2625 X104.075 Y86.397
G1 F900 X75.627 Y57.95 E67.25748
G0 F2625 X74.92 Y57.95
G1 F900 X91.816 Y74.845 E68.05339
G1 X91.904 Y74.933
G0 F2625 X90.091 Y73.827
G1 F900 X74.213 Y57.95 E68.80135
G0 F2625 X73.506 Y57.95
G1 F900 X88.608 Y73.052 E69.51277
G1 X88.696 Y73.14
G0 F2625 X87.594 Y72.745
G1 F900 X72.799 Y57.95 E70.20973
G0 F2625 X72.092 Y57.95
G1 F900 X86.58 Y72.438 E70.89223
G1 X86.668 Y72.526
G0 F2625 X85.586 Y72.151
G1 F900 X71.385 Y57.95 E71.56121
G0 F2625 X70.678 Y57.95
G1 F900 X84.801 Y72.073 E72.22652
G0 F2625 X84.016 Y71.995
G1 F900 X69.971 Y57.95 E72.88815
G0 F2625 X69.263 Y57.95
G1 F900 X83.232 Y71.918 E73.54618
G0 F2625 X82.456 Y71.849
G1 F900 X68.556 Y57.95 E74.20095
G0 F2625 X67.849 Y57.95
G1 F900 X81.812 Y71.913 E74.85872
G0 F2625 X81.169 Y71.977
G1 F900 X67.142 Y57.95 E75.51951
G0 F2625 X66.435 Y57.95
G1 F900 X80.526 Y72.04 E76.18328
G0 F2625 X79.882 Y72.104
G1 F900 X65.728 Y57.95 E76.85005
G0 F2625 X65.021 Y57.95
G1 F900 X79.256 Y72.184 E77.52061
G0 F2625 X78.713 Y72.349
G1 F900 X64.314 Y57.95 E78.19891
G0 F2625 X63.607 Y57.95
G1 F900 X78.17 Y72.513 E78.88495
G0 F2625 X77.627 Y72.677
G1 F900 X62.899 Y57.95 E79.57873
G0 F2625 X62.192 Y57.95
G1 F900 X77.085 Y72.842 E80.28028
G0 F2625 X76.542 Y73.006
G1 F900 X61.485 Y57.95 E80.98957
G0 F2625 X60.778 Y57.95
G1 F900 X76.047 Y73.218 E81.70883
G0 F2625 X75.586 Y73.464
G1 F900 X60.071 Y57.95 E82.43969
G0 F2625 X59.364 Y57.95
G1 F900 X75.125 Y73.71 E83.18213
G0 F2625 X74.664 Y73.957
G1 F900 X58.657 Y57.95 E83.93619
G0 F2625 X58.028 Y58.028
G1 F900 X74.203 Y74.203 E84.69816
G0 F2625 X73.742 Y74.449
G1 F900 X58.028 Y58.735 E85.43842
G0 F2625 X58.028 Y59.442
G1 F900 X73.318 Y74.732 E86.1587
G0 F2625 X72.93 Y75.051
G1 F900 X58.028 Y60.149 E86.8607
G0 F2625 X58.028 Y60.856
G1 F900 X72.542 Y75.37 E87.54443
G0 F2625 X72.153 Y75.689
G1 F900 X58.028 Y61.563 E88.20985
G0 F2625 X58.028 Y62.27
