;Generated by Cura LulzBot Edition GCodeWriter Version: 3.6.37
;FLAVOR:Marlin
;TIME:3700
;Filament used: 1.48169m
;Layer height: 0.25
;Generated with Cura_SteamEngine 3.6.37-macos
M82 ;absolute extrusion mode
;This G-Code has been generated specifically for the LulzBot Mini 2 with SE 0.5mm Tool Head
;
;The following lines can be uncommented for printer specific fine tuning
;More information can be found at https://marlinfw.org/meta/gcode/
;
;M92 E420                 ;Set Axis Steps-per-unit
;M301 P21.0 I1.78 D61.93  ;Set Hotend PID
;M906 E960                ;TMC Motor Current
;
M73 P0                  ; clear GLCD progress bar
M75 					; Start GLCD Print Timer
G26 					; clear potential 'probe fail' condition
M107 					; disable fans
M420 S0                 ; disable leveling matrix
G90 					; absolute positioning
M82 					; set extruder to absolute mode
G92 E0 					; set extruder position to 0
M140 S60.0 ; start bed heating up
G28 					; home all axes
G0 X0 Y187 Z156 F200 			; move away from endstops
M117 Mini 2 Wiping...			; progress indicator message on LCD
M109 R140 	; soften filament before retraction
G1 E-15 F75 				; retract filament
M109 R140                  ; wait for extruder to reach wiping temp
;M206 X0 Y0 Z0              ; uncomment to adjust wipe position (+X ~ nozzle moves left)(+Y ~ nozzle moves forward)(+Z ~ nozzle moves down)
G12                         ; wiping sequence
M206 X0 Y0 Z0               ; reseting stock nozzle position ### CAUTION: changing this line can affect print quality ###
G28 X0 Y0				; home X and Y
M109 R140	; wait for extruder to reach probe temp
M204 S300				; set probing acceleration
G29					; start auto-leveling sequence
M420 S1                     ; enable leveling matrix
M425 Z			     		; use measured Z backlash for compensation
M425 Z F0		     		; turn off measured Z backlash compensation. (if activated in the quality settings, this command will automatically be ignored)
M204 S2000				; restore standard acceleration
G1 X5 Y15 Z10 F5000			; move up off last probe point
G4 S1					; pause
M400					; wait for moves to finish
M117 Heating...				; progress indicator message on LCD
M109 R210 ; wait for extruder to reach initial printing temp
M190 R60.0 ; wait for bed to reach printing temp
G1 Z2 E0 F75				; prime tiny bit of filament into the nozzle
M117 Mini 2 Printing...		; progress indicator message on LCD

M221 S100 T0
G92 E0
G1 F600 E-1.75
;LAYER_COUNT:84
;LAYER:0
M107
G0 F2625 X53.947 Y54.077 Z0.425
;TYPE:SKIRT
G1 F600 E0
G1 F900 X54.193 Y53.833 E0.01154
G1 X54.609 Y53.476 E0.0298
G1 X55.072 Y53.185 E0.04802
G1 X55.573 Y52.963 E0.06627
G1 X56.1 Y52.817 E0.08449
G1 X56.835 Y52.745 E0.10909
G1 X105.285 Y52.757 E1.72297
G1 X105.831 Y52.797 E1.74121
G1 X106.365 Y52.916 E1.75943
G1 X106.876 Y53.112 E1.77767
G1 X107.354 Y53.38 E1.79592
G1 X107.936 Y53.855 E1.82094
G1 X108.179 Y54.098 E1.83239
G1 X108.536 Y54.513 E1.85063
G1 X108.83 Y54.975 E1.86887
G1 X109.053 Y55.474 E1.88707
G1 X109.201 Y56.001 E1.90531
G1 X109.277 Y56.75 E1.93038
G1 X109.281 Y105.332 E3.54867
G1 X109.241 Y105.878 E3.5669
G1 X109.122 Y106.412 E3.58513
G1 X108.927 Y106.923 E3.60335
G1 X108.659 Y107.401 E3.6216
G1 X108.188 Y107.979 E3.64644
G1 X107.928 Y108.24 E3.65871
G1 X107.514 Y108.598 E3.67694
G1 X107.053 Y108.893 E3.69517
G1 X106.553 Y109.117 E3.71342
G1 X106.027 Y109.266 E3.73163
G1 X105.27 Y109.343 E3.75698
G1 X56.817 Y109.333 E5.37097
G1 X56.271 Y109.293 E5.3892
G1 X55.737 Y109.174 E5.40743
G1 X55.226 Y108.978 E5.42566
G1 X54.749 Y108.71 E5.44388
G1 X54.145 Y108.213 E5.46994
G1 X53.905 Y107.969 E5.48134
G1 X53.55 Y107.551 E5.4996
G1 X53.26 Y107.087 E5.51783
G1 X53.041 Y106.586 E5.53604
G1 X52.897 Y106.057 E5.55431
G1 X52.828 Y105.338 E5.57837
G1 X52.838 Y56.738 E7.19725
G1 X52.878 Y56.192 E7.21549
G1 X52.997 Y55.658 E7.23371
G1 X53.193 Y55.147 E7.25194
G1 X53.461 Y54.67 E7.27017
G1 X53.947 Y54.077 E7.29571
G0 F2625 X54.299 Y54.432
G1 F900 X54.545 Y54.188 E7.30725
G1 X54.934 Y53.858 E7.32424
G1 X55.37 Y53.594 E7.34122
G1 X55.841 Y53.4 E7.35819
G1 X56.337 Y53.283 E7.37516
G1 X56.835 Y53.245 E7.3918
G1 X105.285 Y53.257 E9.00569
G1 X105.793 Y53.297 E9.02266
G1 X106.288 Y53.416 E9.03962
G1 X106.759 Y53.611 E9.0566
G1 X107.193 Y53.877 E9.07355
G1 X107.582 Y54.209 E9.09059
G1 X107.825 Y54.452 E9.10204
G1 X108.156 Y54.839 E9.119
G1 X108.422 Y55.274 E9.13598
G1 X108.617 Y55.744 E9.15293
G1 X108.737 Y56.24 E9.16993
G1 X108.777 Y56.75 E9.18697
G1 X108.781 Y105.332 E10.80526
G1 X108.741 Y105.84 E10.82223
G1 X108.622 Y106.335 E10.83919
G1 X108.428 Y106.806 E10.85616
G1 X108.162 Y107.241 E10.87314
G1 X107.834 Y107.626 E10.88999
G1 X107.574 Y107.887 E10.90226
G1 X107.187 Y108.218 E10.91922
G1 X106.753 Y108.485 E10.9362
G1 X106.283 Y108.682 E10.95317
G1 X105.787 Y108.802 E10.97017
G1 X105.27 Y108.843 E10.98745
G1 X56.817 Y108.833 E12.60143
G1 X56.309 Y108.793 E12.61841
G1 X55.814 Y108.674 E12.63537
G1 X55.343 Y108.479 E12.65235
G1 X54.909 Y108.213 E12.6693
G1 X54.501 Y107.862 E12.68723
G1 X54.261 Y107.618 E12.69863
G1 X53.933 Y107.228 E12.71561
G1 X53.671 Y106.791 E12.73258
G1 X53.479 Y106.319 E12.74955
G1 X53.364 Y105.823 E12.76651
G1 X53.328 Y105.338 E12.78271
G1 X53.338 Y56.738 E14.4016
G1 X53.378 Y56.23 E14.41857
G1 X53.497 Y55.735 E14.43553
G1 X53.692 Y55.264 E14.45251
G1 X53.958 Y54.83 E14.46947
G1 X54.299 Y54.432 E14.48692
G1 F600 E12.73692
;MESH:
G0 F2625 X55.9 Y57.25
G0 X57.328 Y57.249
G0 X71.617 Y77.117
G0 X71.687 Y77.187
;TYPE:WALL-INNER
G1 F600 E14.48692
G1 F900 X69.787 Y79.507 E14.58681
G1 X68.374 Y82.15 E14.68664
G1 X67.504 Y85.018 E14.78648
G1 X67.21 Y88 E14.88629
G1 X67.503 Y90.983 E14.98613
G1 X68.372 Y93.848 E15.08586
G1 X69.789 Y96.501 E15.18605
G1 X71.686 Y98.81 E15.28559
G1 X74.005 Y100.714 E15.38554
G1 X76.649 Y102.127 E15.4854
G1 X79.517 Y102.997 E15.58523
G1 X82.5 Y103.291 E15.68508
G1 X85.483 Y102.997 E15.78492
G1 X88.351 Y102.127 E15.88476
G1 X90.995 Y100.714 E15.98462
G1 X93.335 Y98.795 E16.08542
G1 X95.181 Y96.546 E16.18234
G1 X96.634 Y93.822 E16.28518
G1 X97.496 Y90.982 E16.38404
G1 X97.79 Y88 E16.48386
G1 X97.497 Y85.017 E16.5837
G1 X96.627 Y82.149 E16.68353
G1 X95.214 Y79.505 E16.78339
G1 X93.313 Y77.187 E16.88325
G1 X90.995 Y75.286 E16.98311
G1 X88.351 Y73.873 E17.08297
G1 X85.483 Y73.003 E17.1828
G1 X82.5 Y72.709 E17.28265
G1 X79.517 Y73.003 E17.3825
G1 X76.649 Y73.873 E17.48233
G1 X74.005 Y75.286 E17.58219
G1 X71.687 Y77.187 E17.68205
G0 F2625 X71.617 Y77.117
G0 X69.754 Y79.485
G0 X68.608 Y81.631
G0 X57.418 Y104.61
G0 X57.318 Y104.61
G1 F900 X57.314 Y57.485 E19.2518
G1 X57.314 Y57.235 E19.26013
G1 X57.564 Y57.235 E19.26551
G1 X104.789 Y57.234 E20.8386
G1 X104.791 Y104.853 E22.4248
G1 X57.568 Y104.86 E23.99782
G1 X57.318 Y104.86 E24.00615
G1 X57.318 Y104.61 E24.01153
G0 F2625 X56.818 Y105.075
;TYPE:WALL-OUTER
G1 F900 X56.814 Y57.019 E25.6123
G1 X56.814 Y56.853 E25.61783
G1 X56.933 Y56.735 E25.62341
G1 X57.099 Y56.735 E25.62894
G1 X105.169 Y56.734 E27.23017
G1 X105.289 Y56.854 E27.23582
G1 X105.291 Y105.233 E28.84734
G1 X105.171 Y105.353 E28.85299
G1 X57.103 Y105.36 E30.45416
G1 X56.936 Y105.36 E30.45972
G1 X56.818 Y105.242 E30.46528
G1 X56.818 Y105.075 E30.47084
G0 F2625 X56.818 Y104.825
G0 X57.418 Y104.825
G0 X68.338 Y82.135
G0 X69.754 Y79.485
G0 X71.662 Y77.079
G0 X72.042 Y77.542
G1 F900 X70.205 Y79.786 E30.56744
G1 X68.838 Y82.342 E30.66399
G1 X67.997 Y85.116 E30.76055
G1 X67.712 Y88 E30.85709
G1 X67.996 Y90.885 E30.95365
G1 X68.836 Y93.656 E31.0501
G1 X70.207 Y96.222 E31.14701
G1 X72.041 Y98.455 E31.24327
G1 X74.284 Y100.296 E31.33992
G1 X76.841 Y101.663 E31.43651
G1 X79.615 Y102.504 E31.53306
G1 X82.5 Y102.789 E31.62963
G1 X85.385 Y102.504 E31.7262
G1 X88.159 Y101.663 E31.82276
G1 X90.716 Y100.296 E31.91934
G1 X92.98 Y98.44 E32.01686
G1 X94.763 Y96.267 E32.11049
G1 X96.17 Y93.63 E32.21005
G1 X97.003 Y90.884 E32.30563
G1 X97.288 Y88 E32.40217
G1 X97.004 Y85.115 E32.49873
G1 X96.163 Y82.341 E32.59529
G1 X94.796 Y79.784 E32.69187
G1 X92.958 Y77.542 E32.78844
G1 X90.716 Y75.704 E32.88501
G1 X88.159 Y74.337 E32.98159
G1 X85.385 Y73.496 E33.07815
G1 X82.5 Y73.211 E33.17472
G1 X79.615 Y73.496 E33.27129
G1 X76.841 Y74.337 E33.36784
G1 X74.284 Y75.704 E33.46443
G1 X72.042 Y77.542 E33.561
G0 F2625 X71.884 Y77.735
G0 X71.421 Y77.355
G0 X71.338 Y76.839
;TYPE:SKIN
G1 F900 X69.377 Y79.234 E33.66411
G1 X67.919 Y81.962 E33.76714
G1 X67.021 Y84.922 E33.87018
G1 X66.718 Y88 E33.9732
G1 X67.02 Y91.079 E34.07626
G1 X67.917 Y94.036 E34.17919
G1 X69.379 Y96.775 E34.28261
G1 X71.338 Y99.159 E34.38539
G1 X73.731 Y101.124 E34.48853
G1 X76.461 Y102.582 E34.59163
G1 X79.421 Y103.48 E34.69466
G1 X82.5 Y103.783 E34.79772
G1 X85.579 Y103.48 E34.90078
G1 X88.539 Y102.582 E35.00382
G1 X91.269 Y101.124 E35.10691
G1 X93.684 Y99.144 E35.21093
G1 X95.591 Y96.819 E35.3111
G1 X97.089 Y94.01 E35.41714
G1 X97.979 Y91.078 E35.51921
G1 X98.282 Y88 E35.62223
G1 X97.98 Y84.921 E35.72529
G1 X97.082 Y81.961 E35.82833
G1 X95.624 Y79.231 E35.93142
G1 X93.662 Y76.838 E36.0345
G1 X91.269 Y74.876 E36.13758
G1 X88.539 Y73.418 E36.24067
G1 X85.579 Y72.52 E36.34371
G1 X82.5 Y72.217 E36.44676
G1 X79.421 Y72.52 E36.54982
G1 X76.461 Y73.418 E36.65286
G1 X73.731 Y74.876 E36.75595
G1 X71.338 Y76.839 E36.85905
G0 F2625 X57.804 Y57.725
G1 F900 X104.299 Y57.724 E38.40782
G1 X104.301 Y104.363 E39.96138
G1 X57.808 Y104.37 E41.51008
G1 X57.804 Y57.725 E43.06384
G0 F2625 X103.911 Y57.949
G1 F900 X104.074 Y58.112 E43.07152
G0 F2625 X104.074 Y58.819
G1 F900 X103.204 Y57.949 E43.1125
G0 F2625 X102.497 Y57.949
G1 F900 X104.074 Y59.526 E43.18679
G0 F2625 X104.074 Y60.233
G1 F900 X101.79 Y57.949 E43.29439
G0 F2625 X101.083 Y57.949
G1 F900 X104.074 Y60.94 E43.43529
G0 F2625 X104.074 Y61.647
G1 F900 X100.375 Y57.949 E43.60951
G0 F2625 X99.668 Y57.949
G1 F900 X104.074 Y62.354 E43.81705
G0 F2625 X104.074 Y63.061
G1 F900 X98.961 Y57.949 E44.05789
G0 F2625 X98.254 Y57.949
G1 F900 X104.074 Y63.769 E44.33206
G0 F2625 X104.074 Y64.476
G1 F900 X97.547 Y57.949 E44.63953
G0 F2625 X96.84 Y57.949
G1 F900 X104.074 Y65.183 E44.98031
G0 F2625 X104.074 Y65.89
G1 F900 X96.133 Y57.949 E45.35439
G0 F2625 X95.426 Y57.949
G1 F900 X104.074 Y66.597 E45.76178
G0 F2625 X104.074 Y67.304
G1 F900 X94.719 Y57.949 E46.20248
G0 F2625 X94.011 Y57.949
G1 F900 X104.074 Y68.011 E46.6765
G0 F2625 X104.074 Y68.718
G1 F900 X93.304 Y57.949 E47.18383
G0 F2625 X92.597 Y57.949
G1 F900 X104.074 Y69.425 E47.72447
G0 F2625 X104.074 Y70.133
G1 F900 X91.89 Y57.949 E48.29843
G0 F2625 X91.183 Y57.949
G1 F900 X104.074 Y70.84 E48.9057
G0 F2625 X104.074 Y71.547
G1 F900 X90.476 Y57.949 E49.54627
G0 F2625 X89.769 Y57.949
G1 F900 X104.074 Y72.254 E50.22015
G0 F2625 X104.074 Y72.962
G1 F900 X89.062 Y57.949 E50.92736
G0 F2625 X88.355 Y57.949
G1 F900 X104.074 Y73.669 E51.66787
G0 F2625 X104.074 Y74.376
G1 F900 X87.648 Y57.949 E52.44169
G0 F2625 X86.94 Y57.949
G1 F900 X104.074 Y75.083 E53.24884
G0 F2625 X104.074 Y75.79
G1 F900 X86.233 Y57.949 E54.08929
G0 F2625 X85.526 Y57.949
G1 F900 X104.074 Y76.497 E54.96305
G0 F2625 X104.074 Y77.204
G1 F900 X84.819 Y57.949 E55.87012
G0 F2625 X84.112 Y57.949
G1 F900 X104.074 Y77.911 E56.81048
G0 F2625 X104.074 Y78.618
G1 F900 X83.405 Y57.949 E57.78416
G0 F2625 X82.698 Y57.949
G1 F900 X104.074 Y79.326 E58.79116
G0 F2625 X104.074 Y80.033
G1 F900 X81.991 Y57.949 E59.83147
G0 F2625 X81.284 Y57.949
G1 F900 X104.074 Y80.74 E60.90509
G0 F2625 X104.075 Y81.448
G1 F900 X80.577 Y57.95 E62.01203
G0 F2625 X79.87 Y57.95
G1 F900 X104.075 Y82.155 E63.15228
G0 F2625 X104.075 Y82.862
G1 F900 X79.163 Y57.95 E64.32583
G0 F2625 X78.456 Y57.95
G1 F900 X104.075 Y83.569 E65.53269
G0 F2625 X104.075 Y84.276
G1 F900 X77.749 Y57.95 E66.77285
G0 F2625 X77.042 Y57.95
G1 F900 X104.075 Y84.983 E68.04632
G0 F2625 X104.075 Y85.69
G1 F900 X76.335 Y57.95 E69.3531
G0 F2625 X75.627 Y57.95
G1 F900 X104.075 Y86.397 E70.6932
G0 F2625 X104.075 Y87.104
G1 F900 X94.61 Y77.639 E71.13908
G1 X94.522 Y77.551
G0 F2625 X92.857 Y75.887
G1 F900 X74.92 Y57.95 E71.98405
G0 F2625 X74.213 Y57.95
G1 F900 X90.444 Y74.181 E72.74866
G1 X90.532 Y74.269
G0 F2625 X88.927 Y73.37
G1 F900 X73.506 Y57.95 E73.47509
G0 F2625 X72.799 Y57.95
G1 F900 X87.811 Y72.962 E74.18228
G1 X87.899 Y73.05
G0 F2625 X86.796 Y72.654
G1 F900 X72.092 Y57.95 E74.87495
G0 F2625 X71.385 Y57.95
G1 F900 X85.781 Y72.346 E75.55312
G0 F2625 X84.961 Y72.233
G1 F900 X70.678 Y57.95 E76.22596
G0 F2625 X69.971 Y57.95
G1 F900 X84.176 Y72.156 E76.89515
G0 F2625 X83.392 Y72.078
G1 F900 X69.263 Y57.95 E77.56072
G0 F2625 X68.556 Y57.95
G1 F900 X82.608 Y72.001 E78.22266
G0 F2625 X81.945 Y72.045
G1 F900 X67.849 Y57.95 E78.88667
G0 F2625 X67.142 Y57.95
G1 F900 X81.301 Y72.109 E79.55367
G0 F2625 X80.657 Y72.172
G1 F900 X66.435 Y57.95 E80.22364
G0 F2625 X65.728 Y57.95
G1 F900 X80.014 Y72.235 E80.8966
G0 F2625 X79.371 Y72.3
G1 F900 X65.021 Y57.95 E81.5726
G0 F2625 X64.314 Y57.95
G1 F900 X78.828 Y72.465 E82.25635
G0 F2625 X78.285 Y72.629
G1 F900 X63.607 Y57.95 E82.94782
G0 F2625 X62.899 Y57.95
G1 F900 X77.743 Y72.793 E83.64707
G0 F2625 X77.2 Y72.957
G1 F900 X62.192 Y57.95 E84.35404
G0 F2625 X61.485 Y57.95
G1 F900 X76.658 Y73.122 E85.06879
G0 F2625 X76.153 Y73.325
G1 F900 X60.778 Y57.95 E85.79307
G0 F2625 X60.071 Y57.95
G1 F900 X75.692 Y73.571 E86.52894
G0 F2625 X75.231 Y73.817
G1 F900 X59.364 Y57.95 E87.27641
G0 F2625 X58.657 Y57.95
G1 F900 X74.77 Y74.063 E88.03546
G0 F2625 X74.31 Y74.31
G1 F900 X58.028 Y58.028 E88.80247
G0 F2625 X58.028 Y58.735
G1 F900 X73.849 Y74.556 E89.54776
G0 F2625 X73.422 Y74.836
G1 F900 X58.028 Y59.442 E90.27294
G0 F2625 X58.028 Y60.149
G1 F900 X73.033 Y75.154 E90.9798
G0 F2625 X72.645 Y75.473
G1 F900 X58.028 Y60.856 E91.66838
G0 F2625 X58.028 Y61.563
G1 F900 X72.257 Y75.792 E92.33867
G0 F2625 X71.868 Y76.11
G1 F900 X58.028 Y62.27 E92.99065
G0 F2625 X58.028 Y62.977
G1 F900 X71.48 Y76.429 E93.62435
G0 F2625 X71.108 Y76.764
G1 F900 X58.028 Y63.684 E94.24052
G0 F2625 X58.028 Y64.391
G1 F900 X70.789 Y77.153 E94.84169
G0 F2625 X70.47 Y77.542
G1 F900 X58.028 Y65.099 E95.42783
G0 F2625 X58.028 Y65.806
G1 F900 X70.152 Y77.93 E95.99896
G0 F2625 X69.834 Y78.319
G1 F900 X58.028 Y66.513 E96.55512
G0 F2625 X58.028 Y67.221
G1 F900 X69.516 Y78.708 E97.09627
G0 F2625 X69.197 Y79.096
G1 F900 X58.028 Y67.928 E97.6224
G0 F2625 X58.028 Y68.635
G1 F900 X68.949 Y79.556 E98.13686
G0 F2625 X68.703 Y80.016
G1 F900 X58.028 Y69.342 E98.63972
G0 F2625 X58.028 Y70.049
G1 F900 X68.457 Y80.477 E99.13098
G0 F2625 X68.211 Y80.938
G1 F900 X58.028 Y70.756 E99.61066
G0 F2625 X58.029 Y71.464
G1 F900 X67.964 Y81.399 E100.07868
G0 F2625 X67.718 Y81.86
G1 F900 X58.029 Y72.171 E100.53511
G0 F2625 X58.029 Y72.878
G1 F900 X67.55 Y82.399 E100.98362
G0 F2625 X67.386 Y82.942
G1 F900 X58.029 Y73.585 E101.42441
G0 F2625 X58.029 Y74.292
G1 F900 X67.221 Y83.485 E101.85745
G0 F2625 X67.057 Y84.028
G1 F900 X58.029 Y74.999 E102.28277
G0 F2625 X58.029 Y75.707
G1 F900 X66.893 Y84.57 E102.70031
G0 F2625 X66.772 Y85.157
G1 F900 X58.029 Y76.414 E103.11217
G0 F2625 X58.029 Y77.121
G1 F900 X66.709 Y85.801 E103.52107
G0 F2625 X66.645 Y86.444
G1 F900 X58.03 Y77.829 E103.9269
G0 F2625 X58.03 Y78.536
G1 F900 X66.582 Y87.088 E104.32977
G0 F2625 X66.518 Y87.732
G1 F900 X58.03 Y79.243 E104.72965
G0 F2625 X58.03 Y79.95
G1 F900 X66.537 Y88.457 E105.13039
G0 F2625 X66.614 Y89.241
G1 F900 X58.03 Y80.657 E105.53477
G0 F2625 X58.03 Y81.364
G1 F900 X66.691 Y90.026 E105.9428
G0 F2625 X66.768 Y90.81
G1 F900 X58.03 Y82.071 E106.35445
G0 F2625 X58.03 Y82.778
G1 F900 X66.984 Y91.732 E106.77625
G1 X67.072 Y91.82
G0 F2625 X67.291 Y92.747
G1 F900 X58.03 Y83.485 E107.21254
G0 F2625 X58.03 Y84.193
G1 F900 X67.598 Y93.761 E107.66327
G1 X67.686 Y93.849
G0 F2625 X68.23 Y95.1
G1 F900 X58.03 Y84.9 E108.14377
G0 F2625 X58.03 Y85.608
G1 F900 X69.039 Y96.616 E108.66236
G1 X69.127 Y96.704
G0 F2625 X73.882 Y101.459
G1 F900 X76.564 Y104.141 E108.78871
G0 F2625 X77.271 Y104.141
G1 F900 X75.398 Y102.268 E108.87694
G1 X75.31 Y102.18
G0 F2625 X76.736 Y102.899
G1 F900 X77.978 Y104.141 E108.93545
G0 F2625 X78.685 Y104.141
G1 F900 X77.751 Y103.207 E108.97945
G1 X77.663 Y103.119
G0 F2625 X78.766 Y103.515
G0 X79.078 Y103.827
